X:7
T:Buffalo Girls
T:Old Time/Mississippi Buffalo Gals
O:from John Hatcher, MS
G:Key: A
N:Good in cross-A tuning
M:C|
K:A
[P:A]y0|: (3efg | "A"a2g2f2eg | "D"fg af e2 c2 | "A"e2 c2 d2 c2 | "E7"B2-Bc B2 (3efg | 
   "A"a2g2f2eg | "D"fg af e2 c2 | "E7"e2-ec B2 G2 | "A"A2-AB A2 :|
[P:B]y0|: E2 | "A"A2 cA B2 cA | "D"de fd e2 c2 | "A"e2 c2 d2 c2 | "E7"B2-Bc B2 E2 | 
 "A"A2 cA B2 cA | "D"de fd e2 c2 | "E7"e2-ec B2 G2 | "A"A6 :|

